#define 3347539cc8f5324ebc7ccb6845816f85Hv30wT6d6CK0W2cS_width 40
#define 3347539cc8f5324ebc7ccb6845816f85Hv30wT6d6CK0W2cS_height 40
static char 3347539cc8f5324ebc7ccb6845816f85Hv30wT6d6CK0W2cS_bits[] = {
  0x00, 0x00, 0x00, 0x00, 0x00, 0x00, 0x00, 0x00, 0x00, 0x00, 0x00, 0x00, 
  0x00, 0x00, 0x00, 0x00, 0x00, 0x00, 0x00, 0x00, 0x00, 0xF0, 0xFF, 0x0F, 
  0x00, 0x00, 0x0E, 0x00, 0x70, 0x00, 0xC0, 0x01, 0x00, 0x80, 0x03, 0x20, 
  0x00, 0x00, 0x00, 0x04, 0x18, 0x00, 0x00, 0x00, 0x18, 0x04, 0x00, 0x00, 
  0x00, 0x20, 0x02, 0x00, 0x00, 0x00, 0x40, 0x01, 0x00, 0x00, 0x00, 0x80, 
  0x01, 0x00, 0x00, 0x00, 0x80, 0x02, 0x00, 0x00, 0x00, 0x40, 0x02, 0x00, 
  0x00, 0x00, 0x40, 0x04, 0x00, 0x00, 0x00, 0x20, 0x08, 0xC0, 0xFF, 0x03, 
  0x10, 0x10, 0x38, 0x00, 0x1C, 0x08, 0x10, 0x04, 0x00, 0x20, 0x08, 0x20, 
  0x03, 0x00, 0xC0, 0x04, 0xC0, 0x00, 0x00, 0x00, 0x03, 0x80, 0x00, 0x00, 
  0x00, 0x01, 0x80, 0x00, 0x00, 0x00, 0x01, 0x00, 0x01, 0x00, 0x80, 0x00, 
  0x00, 0x02, 0x00, 0x40, 0x00, 0x00, 0x04, 0x00, 0x20, 0x00, 0x00, 0x04, 
  0x7E, 0x20, 0x00, 0x00, 0x88, 0xD5, 0x11, 0x00, 0x00, 0x50, 0x00, 0x0A, 
  0x00, 0x00, 0x60, 0x55, 0x05, 0x00, 0x00, 0x20, 0x00, 0x04, 0x00, 0x00, 
  0x40, 0x55, 0x03, 0x00, 0x00, 0x80, 0x00, 0x01, 0x00, 0x00, 0x00, 0xD5, 
  0x00, 0x00, 0x00, 0x00, 0x81, 0x00, 0x00, 0x00, 0x00, 0x56, 0x00, 0x00, 
  0x00, 0x00, 0x24, 0x00, 0x00, 0x00, 0x00, 0x18, 0x00, 0x00, 0x00, 0x00, 
  0x00, 0x00, 0x00, 0x00, 0x00, 0x00, 0x00, 0x00, };
