#define 96f4bca729244695af337559abc234a8ndeMwi9Xo9wSDBLP_width 40
#define 96f4bca729244695af337559abc234a8ndeMwi9Xo9wSDBLP_height 40
static char 96f4bca729244695af337559abc234a8ndeMwi9Xo9wSDBLP_bits[] = {
  0x00, 0x00, 0x00, 0x00, 0x00, 0x00, 0x00, 0x00, 0x00, 0x00, 0x00, 0x00, 
  0x00, 0x00, 0x00, 0x00, 0x00, 0x00, 0x00, 0x00, 0x00, 0xF0, 0xFF, 0x0F, 
  0x00, 0x00, 0x0E, 0x00, 0x70, 0x00, 0xC0, 0x01, 0x00, 0x80, 0x03, 0x20, 
  0x00, 0x00, 0x00, 0x04, 0x18, 0x00, 0x00, 0x00, 0x18, 0x04, 0x00, 0x00, 
  0x00, 0x20, 0x02, 0x00, 0x00, 0x00, 0x40, 0x01, 0x00, 0x7E, 0x00, 0x80, 
  0x01, 0x80, 0xFF, 0x01, 0x80, 0x02, 0xC0, 0xFF, 0x03, 0x40, 0x02, 0xE0, 
  0xFF, 0x07, 0x40, 0x04, 0xE0, 0xFF, 0x07, 0x20, 0x08, 0xF0, 0xDB, 0x0F, 
  0x10, 0x10, 0xF0, 0xDB, 0x0F, 0x08, 0x10, 0xF0, 0xDB, 0x0F, 0x08, 0x20, 
  0xF0, 0xFF, 0x0F, 0x04, 0x40, 0xF0, 0xFF, 0x0F, 0x02, 0x80, 0xF0, 0xC3, 
  0x0F, 0x01, 0x80, 0xE0, 0xBD, 0x07, 0x01, 0x00, 0xE1, 0xFF, 0x87, 0x00, 
  0x00, 0xC2, 0xFF, 0x43, 0x00, 0x00, 0x84, 0xFF, 0x21, 0x00, 0x00, 0x04, 
  0x7E, 0x20, 0x00, 0x00, 0x08, 0x00, 0x10, 0x00, 0x00, 0x10, 0x00, 0x08, 
  0x00, 0x00, 0x20, 0x00, 0x04, 0x00, 0x00, 0x20, 0x00, 0x04, 0x00, 0x00, 
  0x40, 0x00, 0x02, 0x00, 0x00, 0x80, 0x00, 0x01, 0x00, 0x00, 0x00, 0x81, 
  0x00, 0x00, 0x00, 0x00, 0x81, 0x00, 0x00, 0x00, 0x00, 0x42, 0x00, 0x00, 
  0x00, 0x00, 0x24, 0x00, 0x00, 0x00, 0x00, 0x18, 0x00, 0x00, 0x00, 0x00, 
  0x00, 0x00, 0x00, 0x00, 0x00, 0x00, 0x00, 0x00, };
