#define d3f01832cbfb03a4314948dc2c3ae35eFqHxGXGPoqQiSp3P_width 40
#define d3f01832cbfb03a4314948dc2c3ae35eFqHxGXGPoqQiSp3P_height 40
static char d3f01832cbfb03a4314948dc2c3ae35eFqHxGXGPoqQiSp3P_bits[] = {
  0x00, 0x00, 0x00, 0x00, 0x00, 0x00, 0x00, 0x00, 0x00, 0x00, 0x00, 0x00, 
  0x00, 0x00, 0x00, 0x00, 0x00, 0x00, 0x00, 0x00, 0x00, 0xF0, 0xFF, 0x0F, 
  0x00, 0x00, 0x5E, 0x55, 0x75, 0x00, 0xC0, 0x01, 0x00, 0x80, 0x03, 0x60, 
  0x55, 0x55, 0x55, 0x05, 0x18, 0x00, 0x00, 0x00, 0x18, 0x54, 0x55, 0x55, 
  0x55, 0x35, 0x02, 0x00, 0x00, 0x00, 0x40, 0x55, 0x55, 0x55, 0x55, 0xD5, 
  0x01, 0x00, 0x00, 0x00, 0x80, 0x56, 0x55, 0x55, 0x55, 0x55, 0x02, 0x00, 
  0x00, 0x00, 0x40, 0x54, 0x55, 0x55, 0x55, 0x35, 0x08, 0xC0, 0xFF, 0x03, 
  0x10, 0x50, 0x3D, 0x00, 0x5C, 0x0D, 0x10, 0x04, 0x00, 0x20, 0x08, 0x60, 
  0x03, 0x00, 0xC0, 0x05, 0xC0, 0x00, 0x00, 0x00, 0x03, 0x80, 0x00, 0x00, 
  0x00, 0x01, 0x80, 0x00, 0x00, 0x00, 0x01, 0x00, 0x01, 0x00, 0x80, 0x00, 
  0x00, 0x02, 0x00, 0x40, 0x00, 0x00, 0x04, 0x00, 0x20, 0x00, 0x00, 0x04, 
  0x7E, 0x20, 0x00, 0x00, 0x88, 0x81, 0x11, 0x00, 0x00, 0x50, 0x00, 0x0A, 
  0x00, 0x00, 0x20, 0x00, 0x04, 0x00, 0x00, 0x20, 0x00, 0x04, 0x00, 0x00, 
  0x40, 0x00, 0x02, 0x00, 0x00, 0x80, 0x00, 0x01, 0x00, 0x00, 0x00, 0x81, 
  0x00, 0x00, 0x00, 0x00, 0x81, 0x00, 0x00, 0x00, 0x00, 0x42, 0x00, 0x00, 
  0x00, 0x00, 0x24, 0x00, 0x00, 0x00, 0x00, 0x18, 0x00, 0x00, 0x00, 0x00, 
  0x00, 0x00, 0x00, 0x00, 0x00, 0x00, 0x00, 0x00, };
