#define 291651d1f7ee4327f4a776508985b831mFpIDWFY8Nr7xAPv_width 32
#define 291651d1f7ee4327f4a776508985b831mFpIDWFY8Nr7xAPv_height 32
static char 291651d1f7ee4327f4a776508985b831mFpIDWFY8Nr7xAPv_bits[] = {
  0x00, 0x80, 0x01, 0x00, 0x00, 0x80, 0x01, 0x00, 0x00, 0x40, 0x02, 0x00, 
  0x00, 0x40, 0x02, 0x00, 0x00, 0xA0, 0x05, 0x00, 0x00, 0xA0, 0x05, 0x00, 
  0x00, 0xD0, 0x0B, 0x00, 0x00, 0xD0, 0x0B, 0x00, 0x00, 0xE8, 0x17, 0x00, 
  0x00, 0xE8, 0x17, 0x00, 0x00, 0xF4, 0x2F, 0x00, 0x00, 0xF4, 0x2F, 0x00, 
  0x00, 0xFA, 0x5F, 0x00, 0x00, 0xFA, 0x5F, 0x00, 0x00, 0x3D, 0xBC, 0x00, 
  0x00, 0xCD, 0xB3, 0x00, 0x80, 0xE6, 0x67, 0x01, 0x80, 0x72, 0x4E, 0x01, 
  0x40, 0x31, 0x8C, 0x02, 0x40, 0x31, 0x8C, 0x02, 0xA0, 0x73, 0xCE, 0x05, 
  0xA0, 0xE3, 0xC7, 0x05, 0xD0, 0xCD, 0xB3, 0x0B, 0xD0, 0x36, 0x6C, 0x0B, 
  0xE8, 0xB7, 0xED, 0x17, 0xE8, 0xBF, 0xFD, 0x17, 0xF4, 0xFB, 0xDF, 0x2F, 
  0xF4, 0xFF, 0xFF, 0x2F, 0xFA, 0xBF, 0xFD, 0x5F, 0xFA, 0xFF, 0xFF, 0x5F, 
  0x01, 0x00, 0x00, 0x80, 0xFF, 0xFF, 0xFF, 0xFF, };
