#define 7270be7a767442938413c50e1f6d1673Ak9iiU0zXvEj45PY_width 32
#define 7270be7a767442938413c50e1f6d1673Ak9iiU0zXvEj45PY_height 32
static char 7270be7a767442938413c50e1f6d1673Ak9iiU0zXvEj45PY_bits[] = {
  0x00, 0x80, 0x01, 0x00, 0x00, 0x80, 0x01, 0x00, 0x00, 0x40, 0x02, 0x00, 
  0x00, 0x40, 0x02, 0x00, 0x00, 0x20, 0x04, 0x00, 0x00, 0x20, 0x04, 0x00, 
  0x00, 0x10, 0x08, 0x00, 0x00, 0x10, 0x08, 0x00, 0x00, 0x08, 0x10, 0x00, 
  0x00, 0x08, 0x10, 0x00, 0x00, 0x04, 0x20, 0x00, 0x00, 0x04, 0x20, 0x00, 
  0x00, 0x02, 0x40, 0x00, 0x00, 0x02, 0x40, 0x00, 0x00, 0xC1, 0x83, 0x00, 
  0x00, 0x31, 0x8C, 0x00, 0x80, 0x18, 0x18, 0x01, 0x80, 0x0C, 0x30, 0x01, 
  0x40, 0x0E, 0x70, 0x02, 0x40, 0x0E, 0x70, 0x02, 0x20, 0x0C, 0x30, 0x04, 
  0x20, 0x1C, 0x38, 0x04, 0x10, 0x32, 0x4C, 0x08, 0x10, 0xC9, 0x93, 0x08, 
  0x08, 0x48, 0x12, 0x10, 0x08, 0x40, 0x02, 0x10, 0x04, 0x04, 0x20, 0x20, 
  0x04, 0x00, 0x00, 0x20, 0x06, 0x40, 0x02, 0x60, 0x02, 0x00, 0x00, 0x40, 
  0x01, 0x00, 0x00, 0x80, 0xFF, 0xFF, 0xFF, 0xFF, };
