#define de614dac07ff220b76fed1fdec8d88b3PJ8ajPuY402k5KZ7_width 40
#define de614dac07ff220b76fed1fdec8d88b3PJ8ajPuY402k5KZ7_height 40
static char de614dac07ff220b76fed1fdec8d88b3PJ8ajPuY402k5KZ7_bits[] = {
  0x00, 0x00, 0x00, 0x00, 0x00, 0x00, 0x00, 0x00, 0x00, 0x00, 0x00, 0x00, 
  0x00, 0x00, 0x00, 0x00, 0x00, 0x00, 0x00, 0x00, 0x00, 0xF0, 0xFF, 0x0F, 
  0x00, 0x00, 0x0E, 0x00, 0x70, 0x00, 0xC0, 0x01, 0x00, 0x80, 0x03, 0x20, 
  0x00, 0x00, 0x00, 0x04, 0x18, 0x00, 0x00, 0x00, 0x18, 0x04, 0x00, 0x00, 
  0x00, 0x20, 0x02, 0x00, 0x00, 0x00, 0x40, 0x01, 0x00, 0x00, 0x00, 0x80, 
  0x01, 0x00, 0x00, 0x00, 0x80, 0x02, 0x00, 0x00, 0x00, 0x40, 0x02, 0x00, 
  0x00, 0x00, 0x40, 0x04, 0x00, 0x00, 0x00, 0x20, 0x08, 0xC0, 0xFF, 0x03, 
  0x10, 0x10, 0x78, 0x55, 0x1D, 0x08, 0x10, 0x04, 0x00, 0x20, 0x08, 0x20, 
  0x57, 0x55, 0xD5, 0x04, 0xC0, 0x00, 0x00, 0x00, 0x03, 0x80, 0x55, 0x55, 
  0x55, 0x01, 0x80, 0x00, 0x00, 0x00, 0x01, 0x00, 0x55, 0x55, 0xD5, 0x00, 
  0x00, 0x02, 0x00, 0x40, 0x00, 0x00, 0x54, 0x55, 0x35, 0x00, 0x00, 0x04, 
  0x7E, 0x20, 0x00, 0x00, 0xD8, 0x81, 0x15, 0x00, 0x00, 0x50, 0x00, 0x0A, 
  0x00, 0x00, 0x20, 0x00, 0x04, 0x00, 0x00, 0x20, 0x00, 0x04, 0x00, 0x00, 
  0x40, 0x00, 0x02, 0x00, 0x00, 0x80, 0x00, 0x01, 0x00, 0x00, 0x00, 0x81, 
  0x00, 0x00, 0x00, 0x00, 0x81, 0x00, 0x00, 0x00, 0x00, 0x42, 0x00, 0x00, 
  0x00, 0x00, 0x24, 0x00, 0x00, 0x00, 0x00, 0x18, 0x00, 0x00, 0x00, 0x00, 
  0x00, 0x00, 0x00, 0x00, 0x00, 0x00, 0x00, 0x00, };
